svgs/sharp-solid/circle-divide.svg

<svg xmlns="http://www.w3.org/2000/svg" viewBox="0 0 512 512"><!--! Font Awesome Pro 6.6.0 by @fontawesome - https://fontawesome.com License - https://fontawesome.com/license (Commercial License) Copyright 2024 Fonticons, Inc. --><path d="M256 512A256 256 0 1 0 256 0a256 256 0 1 0 0 512zm32-320l-64 0 0-64 64 0 0 64zM168 232l176 0 24 0 0 48-24 0-176 0-24 0 0-48 24 0zm56 152l0-64 64 0 0 64-64 0z"/></svg>

<svg xmlns="http://www.w3.org/2000/svg" viewBox="0 0 512 512"><!--! Font Awesome Pro 6.4.0 by @fontawesome - https://fontawesome.com License - https://fontawesome.com/license (Commercial License) Copyright 2023 Fonticons, Inc. --><path d="M256 512A256 256 0 1 0 256 0a256 256 0 1 0 0 512zm32-320H224V128h64v64zM168 232H344h24v48H344 168 144V232h24zm56 152V320h64v64H224z"/></svg>
